X: 446
T: Xiangqinqin xiangde mile qiao
%%abc-version 2.0
%%abcx-abcm2ps-target-version 5.9.1 (29 Sep 2008)
%%abc-creator hum2abc beta
%%abcx-conversion-date 2013/10/02 07:52:30
%%abc-edited-by Helmut Schaffrath
%%humdrum-veritas 91922926
%%humdrum-veritas-data 1232499414
%%continueall 1
%%barnumbers 0
L: 1/8
M: 2/4
K: G
B> AA2 [I:setbarnb 1]| 
BA2A | 
G G E D- | 
D G E D | 
d4 | 
A A g e | 
ge2d | 
d2F G | 
A2A F | 
d2z2 |]  



